dist/img/sprites/benefits-assistance-1.svg

<svg viewBox="0 0 325 216" fill="none" xmlns="http://www.w3.org/2000/svg">
<path d="M100 63.5L118 85.5L134 72L140 58L134 49.5L118 52L104 49.5L100 63.5Z" fill="#E0D3FF"/>
<path d="M229.377 45.7454H166.85V55.8833H229.377V45.7454Z" fill="#2C2A2D"/>
<path d="M229.377 73.6559H166.85V83.7938H229.377V73.6559Z" fill="#2C2A2D"/>
<path d="M161.86 155.672C160.88 155.674 159.909 155.481 159.004 155.105C158.099 154.729 157.278 154.177 156.588 153.48L131.392 128.276C130.385 127.261 129.187 126.456 127.867 125.909C126.547 125.361 125.131 125.082 123.702 125.087H71.1021C68.8897 125.084 66.7685 124.205 65.204 122.64C63.6396 121.076 62.7599 118.955 62.7578 116.742V59.3382H72.8957V114.964H123.702C126.456 114.962 129.182 115.505 131.725 116.561C134.268 117.617 136.577 119.165 138.519 121.117L161.821 144.419L185.122 121.117C187.071 119.161 189.388 117.61 191.939 116.554C194.49 115.498 197.225 114.958 199.986 114.964H250.769V58.9561H260.907V116.758C260.905 118.972 260.024 121.094 258.458 122.659C256.892 124.223 254.769 125.102 252.555 125.102H200.017C198.587 125.098 197.17 125.378 195.849 125.925C194.528 126.473 193.329 127.277 192.32 128.292L167.132 153.48C166.441 154.176 165.62 154.728 164.715 155.104C163.81 155.48 162.84 155.673 161.86 155.672V155.672Z" fill="#2C2A2D"/>
<path d="M139.539 190.257L112.198 162.916C111.323 162.032 110.281 161.331 109.132 160.854C107.983 160.378 106.751 160.135 105.507 160.14H67.7238V169.607H96.2972V179.745H66.2577C63.9515 179.741 61.7411 178.823 60.1111 177.191C58.4811 175.56 57.5646 173.348 57.5625 171.042V158.69C57.5646 156.383 58.4811 154.172 60.1111 152.541C61.7411 150.909 63.9515 149.991 66.2577 149.986H105.484C108.058 149.981 110.608 150.485 112.987 151.47C115.365 152.455 117.525 153.902 119.341 155.726L146.683 183.067L139.539 190.257Z" fill="#2C2A2D"/>
<path d="M115.661 216L108.751 209.091C107.875 208.209 106.832 207.51 105.683 207.033C104.535 206.557 103.304 206.312 102.06 206.314H52.6261C50.0504 206.321 47.4989 205.817 45.119 204.832C42.7391 203.847 40.578 202.4 38.7606 200.575L2.54486 164.359C0.915257 162.726 0 160.513 0 158.206C0 155.899 0.915257 153.686 2.54486 152.053L11.7391 142.867C13.3722 141.237 15.585 140.322 17.892 140.322C20.1991 140.322 22.4119 141.237 24.045 142.867L54.2638 173.085L47.0971 180.252L17.892 151.047L10.7332 158.206L45.9352 193.408C46.8122 194.289 47.855 194.987 49.0035 195.462C50.152 195.937 51.3833 196.18 52.6261 196.176H102.06C104.635 196.172 107.186 196.677 109.564 197.664C111.943 198.65 114.102 200.098 115.918 201.924L122.827 208.833L115.661 216Z" fill="#2C2A2D"/>
<path d="M184.745 190.257L177.578 183.083L204.919 155.742C206.736 153.917 208.896 152.471 211.274 151.486C213.653 150.501 216.203 149.996 218.777 150.002H257.995C260.302 150.006 262.513 150.924 264.145 152.556C265.776 154.187 266.694 156.398 266.698 158.705V171.027C266.694 173.333 265.776 175.545 264.145 177.176C262.513 178.807 260.302 179.725 257.995 179.73H227.956V169.592H256.56V160.14H218.777C217.533 160.135 216.301 160.378 215.152 160.854C214.003 161.331 212.961 162.032 212.086 162.916L184.745 190.257Z" fill="#2C2A2D"/>
<path d="M208.592 216L201.418 208.833L208.327 201.924C210.144 200.097 212.305 198.649 214.685 197.662C217.065 196.676 219.617 196.171 222.193 196.176H271.627C272.87 196.18 274.101 195.937 275.25 195.462C276.398 194.987 277.441 194.289 278.318 193.408L313.52 158.206L306.361 151.047L277.218 180.252L270.052 173.085L300.278 142.867C301.91 141.235 304.123 140.319 306.431 140.319C308.739 140.319 310.952 141.235 312.584 142.867L321.771 152.053C323.4 153.686 324.315 155.899 324.315 158.206C324.315 160.513 323.4 162.726 321.771 164.359L285.555 200.575C283.74 202.401 281.58 203.849 279.202 204.834C276.823 205.82 274.272 206.323 271.697 206.314H222.263C221.02 206.312 219.788 206.557 218.64 207.033C217.491 207.51 216.449 208.209 215.572 209.091L208.592 216Z" fill="#2C2A2D"/>
<path d="M118.974 88.4572C117.877 88.4531 116.8 88.157 115.855 87.5994C110.7 84.5658 93.8633 73.5622 93.8633 59.3535C93.8633 51.3602 98.1212 45.0513 104.968 42.9067C107.337 42.1679 109.848 42.0089 112.291 42.4432C114.734 42.8775 117.037 43.8923 119.005 45.4022C120.974 43.8923 123.277 42.8775 125.72 42.4432C128.162 42.0089 130.674 42.1679 133.042 42.9067C139.889 45.0513 144.14 51.3602 144.14 59.3535C144.14 73.5544 127.318 84.558 122.156 87.5994C121.192 88.1678 120.093 88.4643 118.974 88.4572ZM109.538 52.3428C109.009 52.3412 108.483 52.42 107.978 52.5767C105.436 53.3566 103.97 55.8443 103.97 59.3535C103.97 66.1147 112.65 73.5154 118.982 77.633C125.314 73.5154 133.986 66.1147 133.986 59.3535C133.986 55.8443 132.528 53.3722 129.985 52.5767C128.833 52.234 127.599 52.2771 126.473 52.6993C125.347 53.1216 124.39 53.9 123.747 54.9162C123.211 55.6836 122.499 56.3103 121.669 56.7431C120.839 57.1758 119.918 57.4018 118.982 57.4018C118.046 57.4018 117.124 57.1758 116.295 56.7431C115.465 56.3103 114.752 55.6836 114.217 54.9162C113.714 54.1343 113.025 53.4896 112.21 53.0404C111.396 52.5912 110.483 52.3514 109.554 52.3428H109.538Z" fill="#2C2A2D"/>
<path d="M72.9016 69.2654H62.7637V26.4366C62.761 24.8344 63.0752 23.2476 63.6881 21.7673C64.3011 20.2871 65.2007 18.9427 66.3353 17.8115L80.5752 3.57171C81.7058 2.43641 83.0502 1.53626 84.5306 0.923234C86.0109 0.310211 87.598 -0.00355762 89.2003 3.04282e-05H252.647C254.848 0.00415298 256.958 0.880473 258.515 2.43712C260.072 3.99378 260.948 6.10386 260.952 8.3053V68.5011H250.814V10.1379H89.1925C88.9213 10.1383 88.6529 10.1922 88.4026 10.2966C88.1524 10.401 87.9252 10.5538 87.7342 10.7462L73.4943 24.9783C73.3029 25.1697 73.1514 25.3971 73.0483 25.6474C72.9452 25.8977 72.8927 26.1659 72.8938 26.4366L72.9016 69.2654Z" fill="#2C2A2D"/>
</svg>

<svg viewBox="0 0 325 216" fill="none" xmlns="http://www.w3.org/2000/svg"><path d="M100 63.5l18 22L134 72l6-14-6-8.5-16 2.5-14-2.5-4 14z" fill="#E0D3FF"/><path d="M229.377 45.745H166.85v10.138h62.527V45.745zm0 27.911H166.85v10.138h62.527V73.656z" fill="#2C2A2D"/><path d="M161.86 155.672a7.406 7.406 0 01-5.272-2.192l-25.196-25.204a10.78 10.78 0 00-7.69-3.189h-52.6a8.355 8.355 0 01-8.344-8.345V59.338h10.138v55.626h50.806a20.879 20.879 0 0114.817 6.153l23.302 23.302 23.301-23.302a20.919 20.919 0 0114.864-6.153h50.783V58.956h10.138v57.802a8.353 8.353 0 01-8.352 8.344h-52.538a10.817 10.817 0 00-7.697 3.19l-25.188 25.188a7.414 7.414 0 01-5.272 2.192zm-22.321 34.585l-27.341-27.341a9.367 9.367 0 00-6.691-2.776H67.724v9.467h28.573v10.138h-30.04a8.708 8.708 0 01-8.695-8.703V158.69a8.709 8.709 0 018.696-8.704h39.226a19.495 19.495 0 0113.857 5.74l27.342 27.341-7.144 7.19z" fill="#2C2A2D"/><path d="M115.661 216l-6.91-6.909a9.406 9.406 0 00-6.691-2.777H52.626a19.492 19.492 0 01-13.865-5.739L2.545 164.359a8.711 8.711 0 010-12.306l9.194-9.186a8.71 8.71 0 0112.306 0l30.219 30.218-7.167 7.167-29.205-29.205-7.159 7.159 35.202 35.202a9.396 9.396 0 006.691 2.768h49.434a19.497 19.497 0 0113.858 5.748l6.909 6.909-7.166 7.167zm69.084-25.743l-7.167-7.174 27.341-27.341a19.494 19.494 0 0113.858-5.74h39.218a8.718 8.718 0 018.703 8.703v12.322a8.719 8.719 0 01-8.703 8.703h-30.039v-10.138h28.604v-9.452h-37.783a9.367 9.367 0 00-6.691 2.776l-27.341 27.341z" fill="#2C2A2D"/><path d="M208.592 216l-7.174-7.167 6.909-6.909a19.502 19.502 0 0113.866-5.748h49.434a9.403 9.403 0 006.691-2.768l35.202-35.202-7.159-7.159-29.143 29.205-7.166-7.167 30.226-30.218a8.7 8.7 0 0112.306 0l9.187 9.186a8.713 8.713 0 010 12.306l-36.216 36.216a19.457 19.457 0 01-13.858 5.739h-49.434a9.423 9.423 0 00-6.691 2.777l-6.98 6.909zM118.974 88.457a6.184 6.184 0 01-3.119-.858c-5.155-3.033-21.992-14.037-21.992-28.246 0-7.993 4.258-14.302 11.105-16.446a15.489 15.489 0 0114.037 2.495 15.49 15.49 0 0114.037-2.495c6.847 2.144 11.098 8.453 11.098 16.447 0 14.2-16.822 25.204-21.984 28.245a6.186 6.186 0 01-3.182.858zm-9.436-36.114a5.21 5.21 0 00-1.56.234c-2.542.78-4.008 3.267-4.008 6.776 0 6.762 8.68 14.162 15.012 18.28 6.332-4.118 15.004-11.518 15.004-18.28 0-3.509-1.458-5.98-4.001-6.776a5.522 5.522 0 00-6.238 2.34 5.813 5.813 0 01-7.452 1.826 5.804 5.804 0 01-2.078-1.827 5.6 5.6 0 00-4.663-2.573h-.016z" fill="#2C2A2D"/><path d="M72.902 69.265H62.764V26.437a12.152 12.152 0 013.571-8.626l14.24-14.24A12.134 12.134 0 0189.2 0h163.447a8.322 8.322 0 018.305 8.305v60.196h-10.138V10.138H89.193a2.06 2.06 0 00-1.459.608l-14.24 14.232a2.05 2.05 0 00-.6 1.459l.008 42.828z" fill="#2C2A2D"/></svg>
